X: 11691
T: Einini
R: waltz
M: 3/4
K: Dmajor
dB|B2 B2 dB|BA A2 BG|A2 A2 BG|A2 A2 dB|
B2 B2 dB|BA A2 AF|G2 G2 AF|G2 G2 Bd||
e2 e2 ge|ed d2 BG|AA A2 BG|AA A2 Bd|
e2 e2 ge|ed d2 BA|GG G2 BA|GG G2:|

